src/icons/src/preferences.svg

<svg height="32" viewBox="0 0 32 32" width="32" xmlns="http://www.w3.org/2000/svg"><g fill-rule="evenodd" transform="translate(0 .75)"><path d="m32.4999994 26.56v-1.2h-16.0000524v1.2z"/><path d="m9.27219512 26.56v-1.2h-9.27219512v1.2z"/><path d="m0 14.8v1.2h19.3170732v-1.2z"/><path d="m26.4679572 14.8v1.2h5.6335062v-1.2z"/><path d="m0 4.24v1.2h6.18146341v-1.2z"/><path d="m13.5 4.24v1.2h18.6014634v-1.2z"/><path d="m9.62341463 7.97894737c-1.80457416 0-3.26341463-1.43092008-3.26341463-3.18947369 0-1.7585536 1.45884047-3.18947368 3.26341463-3.18947368 1.80457417 0 3.26341467 1.43092008 3.26341467 3.18947368 0 1.75855361-1.4588405 3.18947369-3.26341467 3.18947369zm0-7.57894737c-2.46218096 0-4.46341463 1.96293255-4.46341463 4.38947368 0 2.42654114 2.00123367 4.38947369 4.46341463 4.38947369 2.46218097 0 4.46341467-1.96293255 4.46341467-4.38947369 0-2.42654113-2.0012337-4.38947368-4.46341467-4.38947368z"/><path d="m23.0634146 18.5389474c-1.8045741 0-3.2634146-1.4309201-3.2634146-3.1894737s1.4588405-3.1894737 3.2634146-3.1894737c1.8045742 0 3.2634147 1.4309201 3.2634147 3.1894737s-1.4588405 3.1894737-3.2634147 3.1894737zm0-7.5789474c-2.4621809 0-4.4634146 1.9629326-4.4634146 4.3894737s2.0012337 4.3894737 4.4634146 4.3894737c2.462181 0 4.4634147-1.9629326 4.4634147-4.3894737s-2.0012337-4.3894737-4.4634147-4.3894737z"/><path d="m12.5034146 29.0989474c-1.8045741 0-3.2634146-1.4309201-3.2634146-3.1894737s1.4588405-3.1894737 3.2634146-3.1894737c1.8045742 0 3.2634147 1.4309201 3.2634147 3.1894737s-1.4588405 3.1894737-3.2634147 3.1894737zm0-7.5789474c-2.4621809 0-4.4634146 1.9629326-4.4634146 4.3894737s2.0012337 4.3894737 4.4634146 4.3894737c2.462181 0 4.4634147-1.9629326 4.4634147-4.3894737s-2.0012337-4.3894737-4.4634147-4.3894737z"/></g></svg>

<?xml version="1.0" encoding="UTF-8"?>
<svg width="32px" height="32px" viewBox="0 0 32 32" version="1.1" xmlns="http://www.w3.org/2000/svg" xmlns:xlink="http://www.w3.org/1999/xlink">
    <!-- Generator: Sketch 40.1 (33804) - http://www.bohemiancoding.com/sketch -->
    <title>preferences</title>
    <desc>Created with Sketch.</desc>
    <defs></defs>
    <g id="Page-1" stroke="none" stroke-width="1" fill="none" fill-rule="evenodd">
        <g id="preferences" fill="#000000">
            <g id="Page-1" transform="translate(0.000000, 0.750000)">
                <polygon id="Stroke-1" points="32.4999994 26.56 32.4999994 25.36 16.499947 25.36 16.499947 26.56"></polygon>
                <polygon id="Stroke-3" points="9.27219512 26.56 9.27219512 25.36 0 25.36 0 26.56"></polygon>
                <polygon id="Stroke-5" points="0 14.8 0 16 19.3170732 16 19.3170732 14.8"></polygon>
                <polygon id="Stroke-7" points="26.4679572 14.8 26.4679572 16 32.1014634 16 32.1014634 14.8"></polygon>
                <polygon id="Stroke-9" points="0 4.24 0 5.44 6.18146341 5.44 6.18146341 4.24"></polygon>
                <polygon id="Stroke-11" points="13.5 4.24 13.5 5.44 32.1014634 5.44 32.1014634 4.24"></polygon>
                <path d="M9.62341463,7.97894737 C7.81884047,7.97894737 6.36,6.54802729 6.36,4.78947368 C6.36,3.03092008 7.81884047,1.6 9.62341463,1.6 C11.4279888,1.6 12.8868293,3.03092008 12.8868293,4.78947368 C12.8868293,6.54802729 11.4279888,7.97894737 9.62341463,7.97894737 Z M9.62341463,0.4 C7.16123367,0.4 5.16,2.36293255 5.16,4.78947368 C5.16,7.21601482 7.16123367,9.17894737 9.62341463,9.17894737 C12.0855956,9.17894737 14.0868293,7.21601482 14.0868293,4.78947368 C14.0868293,2.36293255 12.0855956,0.4 9.62341463,0.4 Z" id="Stroke-13"></path>
                <path d="M23.0634146,18.5389474 C21.2588405,18.5389474 19.8,17.1080273 19.8,15.3494737 C19.8,13.5909201 21.2588405,12.16 23.0634146,12.16 C24.8679888,12.16 26.3268293,13.5909201 26.3268293,15.3494737 C26.3268293,17.1080273 24.8679888,18.5389474 23.0634146,18.5389474 Z M23.0634146,10.96 C20.6012337,10.96 18.6,12.9229326 18.6,15.3494737 C18.6,17.7760148 20.6012337,19.7389474 23.0634146,19.7389474 C25.5255956,19.7389474 27.5268293,17.7760148 27.5268293,15.3494737 C27.5268293,12.9229326 25.5255956,10.96 23.0634146,10.96 Z" id="Stroke-15"></path>
                <path d="M12.5034146,29.0989474 C10.6988405,29.0989474 9.24,27.6680273 9.24,25.9094737 C9.24,24.1509201 10.6988405,22.72 12.5034146,22.72 C14.3079888,22.72 15.7668293,24.1509201 15.7668293,25.9094737 C15.7668293,27.6680273 14.3079888,29.0989474 12.5034146,29.0989474 Z M12.5034146,21.52 C10.0412337,21.52 8.04,23.4829326 8.04,25.9094737 C8.04,28.3360148 10.0412337,30.2989474 12.5034146,30.2989474 C14.9655956,30.2989474 16.9668293,28.3360148 16.9668293,25.9094737 C16.9668293,23.4829326 14.9655956,21.52 12.5034146,21.52 Z" id="Stroke-17"></path>
            </g>
        </g>
    </g>
</svg>
